pk/chicken.svg

<svg viewBox="0 0 48 48" fill="none" xmlns="http://www.w3.org/2000/svg" height="1em" width="1em">
  <path d="M35.9786 15.4998C35.4536 15.0194 34.8809 14.5921 34.2688 14.2248L32.8034 13.3456C31.4442 12.53 29.9497 11.965 28.3909 11.6774L27.8672 11.5808C25.0469 11.0603 22.3297 10.0961 19.8159 8.7262C19.586 7.71021 18.7942 6.86455 17.7106 6.61834C16.2072 6.27672 14.7114 7.21858 14.3698 8.72205C14.0282 10.2255 14.97 11.7212 16.4735 12.0629C16.5995 12.0915 16.7255 12.1111 16.8507 12.1221C18.5056 13.7407 19.9052 15.6035 21 17.6467" stroke="black" stroke-width="4" stroke-linecap="round" stroke-linejoin="round"/>
  <path d="M11.3067 25.0192C11.0447 25.3012 8 28.6506 8 32C8 35.5 9.55844 37 11 38C12.4416 39 14.7208 40 16.6104 40C18.5 40 28.5 41 33 40C37.5 39 38 38 40 36C41.0815 34.9185 41.882 33.3983 42.3892 32.2301C42.8802 31.0991 43.2654 29.9245 43.5649 28.7284C43.9246 27.2922 44.2883 25.2299 44 23.5C43.5 20.5 42 18.5 37 16C32.3958 13.6979 28.3532 14.7876 27.7421 14.9745C27.6868 14.9914 27.6352 15.0095 27.5806 15.0287C26.7806 15.3116 20.3163 17.6254 17.5714 19.5C14.7687 21.414 11.6092 24.7019 11.3428 24.981C11.3293 24.9951 11.3201 25.0048 11.3067 25.0192Z" stroke="black" stroke-width="4" stroke-linecap="round" stroke-linejoin="round"/>
  <path d="M6.10263 20.0094C5.97741 19.9983 5.85146 19.9787 5.72546 19.9501C4.222 19.6085 3.28014 18.1127 3.62176 16.6093C3.96338 15.1058 5.45912 14.1639 6.96259 14.5055C8.04613 14.7518 8.83798 15.5974 9.0679 16.6134C11.5816 17.9833 14.2989 18.9475 17.1192 19.468L17.6428 19.5646C19.2016 19.8522 20.6961 20.4172 22.0553 21.2328L23.5207 22.112C24.5005 22.6999 25.3793 23.4416 26.1234 24.3087L26.5288 24.7812C27.7526 26.2073 28.3101 28.0877 28.0613 29.9504L28.0331 30.1621C27.8636 31.4312 27.2894 32.6118 26.3957 33.5287L25.9345 34.0018C24.4094 35.5665 22.2148 36.2854 20.0595 35.9261C18.3925 35.6483 16.8493 34.8707 15.6342 33.6962L14.8952 32.9819C14.301 32.4076 13.7859 31.7568 13.3634 31.0466L11.1909 27.3947L10.5574 26.1247C9.42238 23.8489 7.91571 21.7826 6.10263 20.0094Z" fill="#2F88FF" stroke="black" stroke-width="4" stroke-linecap="round" stroke-linejoin="round"/>
</svg>

<svg viewBox="0 0 48 48" fill="none" xmlns="http://www.w3.org/2000/svg" height="1em" width="1em">
  <path d="M35.979 15.5a10.65 10.65 0 0 0-1.71-1.275l-1.466-.88a13.247 13.247 0 0 0-4.412-1.668l-.524-.096a27.106 27.106 0 0 1-8.051-2.855 2.792 2.792 0 1 0-2.965 3.396A22.772 22.772 0 0 1 21 17.647" stroke="#000" stroke-width="4" stroke-linecap="round" stroke-linejoin="round"/>
  <path d="M11.307 25.02C11.045 25.3 8 28.65 8 32c0 3.5 1.558 5 3 6s3.72 2 5.61 2C18.5 40 28.5 41 33 40s5-2 7-4c1.081-1.081 1.882-2.602 2.39-3.77a22.524 22.524 0 0 0 1.175-3.502c.36-1.436.723-3.498.435-5.228-.5-3-2-5-7-7.5-4.604-2.302-8.647-1.212-9.258-1.025a4.026 4.026 0 0 0-.161.054c-.8.283-7.265 2.596-10.01 4.471-2.802 1.914-5.962 5.202-6.228 5.481a3.304 3.304 0 0 0-.036.038Z" stroke="#000" stroke-width="4" stroke-linecap="round" stroke-linejoin="round"/>
  <path d="M6.103 20.01a2.792 2.792 0 1 1 2.965-3.396 27.105 27.105 0 0 0 8.051 2.854l.524.097c1.559.287 3.053.852 4.412 1.668l1.466.879a10.65 10.65 0 0 1 2.602 2.197l.406.472a6.597 6.597 0 0 1 1.532 5.17l-.028.211a5.952 5.952 0 0 1-1.637 3.367l-.462.473a6.672 6.672 0 0 1-5.875 1.924 8.34 8.34 0 0 1-4.425-2.23l-.739-.714a9.314 9.314 0 0 1-1.532-1.935l-2.172-3.652-.634-1.27a22.766 22.766 0 0 0-4.454-6.116Z" fill="#2F88FF" stroke="#000" stroke-width="4" stroke-linecap="round" stroke-linejoin="round"/>
</svg>
